src/assets/icons/shapes,simple,outline-hexagon.svg

<svg width="48" height="48" viewBox="0 0 48 48" fill="none" xmlns="http://www.w3.org/2000/svg">
<rect opacity="0.2" x="5" y="5" width="38" height="38" rx="4" fill="black"/>
<path d="M25.5 12.0207L33.6244 16.7113C34.1292 17.0028 34.4451 17.1865 34.6734 17.3501C34.8838 17.5009 34.9524 17.5888 34.9904 17.6547C35.0284 17.7206 35.0703 17.8239 35.0957 18.0815C35.1232 18.361 35.1244 18.7264 35.1244 19.3094V28.6906C35.1244 29.2736 35.1232 29.639 35.0957 29.9185C35.0703 30.1761 35.0284 30.2794 34.9904 30.3453C34.9524 30.4111 34.8838 30.4991 34.6734 30.6499C34.4451 30.8135 34.1292 30.9972 33.6244 31.2887L25.5 35.9793C24.9951 36.2708 24.6781 36.4525 24.4223 36.5684C24.1865 36.6752 24.076 36.6906 24 36.6906C23.924 36.6906 23.8135 36.6752 23.5777 36.5684C23.3219 36.4525 23.0049 36.2708 22.5 35.9793L14.3756 31.2887C13.8708 30.9972 13.5549 30.8135 13.3266 30.6499C13.1162 30.4991 13.0476 30.4111 13.0096 30.3453C12.9716 30.2794 12.9297 30.1761 12.9043 29.9185C12.8768 29.639 12.8756 29.2736 12.8756 28.6906V19.3094C12.8756 18.7264 12.8768 18.361 12.9043 18.0815C12.9297 17.8239 12.9716 17.7206 13.0096 17.6547C13.0476 17.5888 13.1162 17.5009 13.3266 17.3501C13.5549 17.1865 13.8708 17.0028 14.3756 16.7113L22.5 12.0207C23.0049 11.7292 23.3219 11.5475 23.5777 11.4316C23.8135 11.3248 23.924 11.3094 24 11.3094C24.076 11.3094 24.1865 11.3248 24.4223 11.4316C24.6781 11.5475 24.9951 11.7292 25.5 12.0207Z" stroke="black" stroke-width="2"/>
</svg>

<svg xmlns="http://www.w3.org/2000/svg" width="48" height="48" fill="none" viewBox="0 0 48 48">
  <rect width="38" height="38" x="5" y="5" fill="#000" opacity=".2" rx="4"/>
  <path stroke="#000" stroke-width="2" d="M25.5 12.02l8.124 4.691c.505.292.821.476 1.05.64.21.15.278.238.316.304.038.066.08.169.106.426.027.28.028.645.028 1.228v9.382c0 .583 0 .948-.028 1.228-.026.257-.068.36-.106.426-.038.066-.106.154-.317.305-.228.164-.544.347-1.049.639l-8.124 4.69c-.505.292-.822.474-1.078.59-.236.106-.346.122-.422.122-.076 0-.186-.016-.422-.123-.256-.115-.573-.297-1.078-.589l-8.124-4.69c-.505-.292-.821-.476-1.05-.64-.21-.15-.278-.238-.316-.304-.038-.066-.08-.169-.106-.426-.027-.28-.028-.645-.028-1.228v-9.382c0-.583 0-.948.028-1.228.026-.257.068-.36.106-.426.038-.066.106-.154.317-.305.228-.164.544-.347 1.049-.639l8.124-4.69c.505-.292.822-.474 1.078-.59.236-.106.346-.122.422-.122.076 0 .186.016.422.123.256.115.573.297 1.078.589z"/>
</svg>
